dhis-2/dhis-support/dhis-support-system/src/main/resources/SVGs/rdt_result_neg_outline.svg

<?xml version="1.0" encoding="UTF-8" standalone="no"?>
<!-- Created with Inkscape (http://www.inkscape.org/) -->
<svg id="svg8" xmlns:rdf="http://www.w3.org/1999/02/22-rdf-syntax-ns#" xmlns="http://www.w3.org/2000/svg" xmlns:osb="http://www.openswatchbook.org/uri/2009/osb" height="48" width="48" version="1.1" enable-background="new" xmlns:cc="http://creativecommons.org/ns#" viewBox="0 0 12.7 12.7" xmlns:dc="http://purl.org/dc/elements/1.1/">
 <title id="title4753">UIO-icon</title>
 <metadata id="metadata5">
  <rdf:RDF>
   <cc:Work rdf:about="">
    <dc:format>image/svg+xml</dc:format>
    <dc:type rdf:resource="http://purl.org/dc/dcmitype/StillImage"/>
    <dc:title>UIO-icon</dc:title>
    <dc:creator>
     <cc:Agent>
      <dc:title>Joaquín Urbano</dc:title>
     </cc:Agent>
    </dc:creator>
    <dc:rights>
     <cc:Agent>
      <dc:title>GPL</dc:title>
     </cc:Agent>
    </dc:rights>
   </cc:Work>
  </rdf:RDF>
 </metadata>
 <g id="layer1" transform="translate(0,-284.3)" fill="#333">
  <path id="text9299" d="m10.65 17.803v0.001953c-0.35643 0-0.64456 0.11719-0.86328 0.35352-0.21872 0.23474-0.32812 0.56492-0.32812 0.99023 0 0.40204 0.10861 0.71874 0.32617 0.95117 0.21756 0.23155 0.49607 0.34766 0.83398 0.34766 0.27311 0 0.49677-0.068249 0.67383-0.20312 0.17821-0.13567 0.30643-0.3422 0.38281-0.62109l-0.49805-0.1582c-0.042818 0.187-0.11452 0.32322-0.21289 0.41016-0.098367 0.086733-0.21501 0.13086-0.35156 0.13086-0.18516 0-0.33545-0.06742-0.45117-0.20508-0.11573-0.13686-0.17383-0.3685-0.17383-0.69141 0-0.30436 0.058898-0.52417 0.17578-0.66016 0.11804-0.13567 0.27035-0.20312 0.45898-0.20312 0.13656 0 0.25277 0.038484 0.34766 0.11328 0.096051 0.076789 0.15937 0.18237 0.18945 0.31445l0.50781-0.12305c-0.057-0.206-0.143-0.363-0.259-0.472-0.194-0.185-0.446-0.277-0.758-0.277zm15.918 0.001953c-0.1354 0-0.24878 0.022947-0.33789 0.072266-0.087951 0.047743-0.14808 0.11072-0.18164 0.1875-0.032 0.076-0.048 0.192-0.048 0.347v0.14062h-0.271v0.385h0.271v1.4668h0.48828v-1.467h0.364v-0.385h-0.364v-0.131c0-0.094292 0.014808-0.15723 0.044922-0.18945 0.031272-0.031824 0.081748-0.050781 0.15234-0.050781 0.071746 0 0.14707 0.007463 0.22461 0.027344l0.066406-0.3418c-0.13308-0.042172-0.26933-0.0625-0.4082-0.0625zm-10.564 0.042969v2.5547h0.51367v-0.96289h0.33594c0.2326 0 0.41053-0.011308 0.5332-0.035156 0.090262-0.01988 0.17883-0.060618 0.26562-0.12109 0.087951-0.06127 0.16009-0.14688 0.2168-0.25391 0.056707-0.10702 0.083984-0.23777 0.083984-0.39453 0-0.2033-0.048114-0.3681-0.14648-0.49609-0.098367-0.12891-0.22138-0.21416-0.36719-0.25195-0.094894-0.023887-0.29887-0.039062-0.61133-0.039062zm7.5684 0v2.5547h0.51367v-0.96289h0.33398c0.2326 0 0.41053-0.011308 0.5332-0.035156 0.090262-0.01988 0.17883-0.060618 0.26562-0.12109 0.087951-0.06127 0.16009-0.14688 0.2168-0.25391 0.056707-0.10702 0.085938-0.23777 0.085938-0.39453 0-0.2033-0.050067-0.3681-0.14844-0.49609-0.098367-0.12891-0.21942-0.21416-0.36523-0.25195-0.094894-0.023887-0.29887-0.039062-0.61133-0.039062zm-7.0547 0.43164h0.25c0.18516 0 0.30781 0.009579 0.36914 0.021484 0.08332 0.015912 0.15264 0.052809 0.20703 0.11328 0.054392 0.060076 0.080078 0.13542 0.080078 0.22852 0 0.075594-0.019269 0.14192-0.058594 0.19922-0.038195 0.056893-0.091876 0.099899-0.16016 0.12695-0.068281 0.027855-0.20374 0.039062-0.40625 0.039062h-0.28125zm7.5684 0h0.24805c0.18516 0 0.30781 0.009579 0.36914 0.021484 0.08332 0.015912 0.15264 0.052809 0.20703 0.11328 0.054392 0.060076 0.082031 0.13542 0.082031 0.22852 0 0.075594-0.021222 0.14192-0.060547 0.19922-0.038195 0.056893-0.089926 0.099899-0.1582 0.12695-0.068277 0.027855-0.20373 0.039062-0.40625 0.039062h-0.28125zm-5.9473 0.27344 0.74414 1.8496h0.43945l0.73242-1.8496h-0.50195l-0.35156 0.94336c-0.01854 0.05212-0.034572 0.10529-0.050781 0.1582-0.006923 0.023887-0.024168 0.078236-0.050781 0.1582l-0.10156-0.31641-0.3457-0.94336zm-9.8958 3.088c-2.3504 0-4.2422 1.891-4.2422 4.242v0.070312c0 2.3504 1.8918 4.2441 4.2422 4.2441h31.516c2.35 0 4.242-1.893 4.242-4.244v-0.07c0-2.351-1.892-4.242-4.242-4.242zm0.4961 0.515h30.496c2.3504 0 4.2422 1.6788 4.2422 3.7637s-1.8918 3.7637-4.2422 3.7637h-30.496c-2.3504 0-4.2422-1.6788-4.2422-3.7637s1.8918-3.7637 4.2422-3.7637zm31.043 1.082a2.668 2.668 0 0 0 -2.668 2.668 2.668 2.668 0 0 0 2.668 2.668 2.668 2.668 0 0 0 2.668 -2.668 2.668 2.668 0 0 0 -2.668 -2.668zm-31.23 0.278c-1.2811 0-2.3125 1.0313-2.3125 2.3105 0 1.2793 1.0314 2.3086 2.3125 2.3086h20.019c1.2811 0 2.3125-1.0293 2.3125-2.3086s-1.0314-2.3105-2.3125-2.3105zm31.23 0.238a2.1523 2.1523 0 0 1 2.153 2.152 2.1523 2.1523 0 0 1 -2.153 2.153 2.1523 2.1523 0 0 1 -2.152 -2.153 2.1523 2.1523 0 0 1 2.152 -2.152zm-31.234 0.271h1.8242v3.592h-1.8241c-0.9947 0-1.7969-0.80218-1.7969-1.7969 0-0.9947 0.80218-1.7949 1.7969-1.7949zm2.3379 0h17.677c0.9947 0 1.7969 0.80022 1.7969 1.7949 0 0.9947-0.80218 1.7969-1.7969 1.7969h-17.677zm23.177 0.01a1.8783 1.8783 0 0 0 -1.878 1.879 1.8783 1.8783 0 0 0 1.878 1.879 1.8783 1.8783 0 0 0 1.879 -1.879 1.8783 1.8783 0 0 0 -1.879 -1.879zm0 0.50781a1.37 1.37 0 0 1 1.372 1.371 1.37 1.37 0 0 1 -1.372 1.369 1.37 1.37 0 0 1 -1.369 -1.369 1.37 1.37 0 0 1 1.369 -1.371z" transform="matrix(.26458 0 0 .26458 0 284.3)"/>
 </g>
</svg>

<svg width="48" height="48" viewBox="0 0 48 48" fill="none" xmlns="http://www.w3.org/2000/svg">
<path d="M10.6498 17.8027V17.8047C10.2934 17.8047 10.0053 17.9218 9.78658 18.1582C9.56786 18.3929 9.45846 18.7231 9.45846 19.1484C9.45846 19.5504 9.56707 19.8671 9.78463 20.0995C10.0022 20.3311 10.2807 20.4472 10.6186 20.4472C10.8917 20.4472 11.1154 20.379 11.2924 20.2441C11.4706 20.1084 11.5988 19.9019 11.6752 19.623L11.1772 19.4648C11.1344 19.6518 11.0627 19.788 10.9643 19.875C10.8659 19.9617 10.7493 20.0058 10.6127 20.0058C10.4276 20.0058 10.2773 19.9384 10.1616 19.8007C10.0458 19.6639 9.98775 19.4322 9.98775 19.1093C9.98775 18.805 10.0466 18.5852 10.1635 18.4492C10.2816 18.3135 10.4339 18.2461 10.6225 18.2461C10.7591 18.2461 10.8753 18.2846 10.9702 18.3594C11.0662 18.4361 11.1295 18.5417 11.1596 18.6738L11.6674 18.5507C11.6104 18.3447 11.5244 18.1878 11.4084 18.0788C11.2144 17.8938 10.9624 17.8018 10.6504 17.8018L10.6498 17.8027ZM26.5677 17.8047C26.4323 17.8047 26.3189 17.8276 26.2298 17.8769C26.1418 17.9247 26.0817 17.9876 26.0481 18.0644C26.0161 18.1404 26.0001 18.2564 26.0001 18.4114V18.552H25.7291V18.937H26.0001V20.4038H26.4884V18.9368H26.8524V18.5518H26.4884V18.4208C26.4884 18.3265 26.5032 18.2636 26.5333 18.2314C26.5646 18.1996 26.6151 18.1806 26.6857 18.1806C26.7574 18.1806 26.8327 18.1881 26.9103 18.208L26.9767 17.8662C26.8436 17.824 26.7073 17.8037 26.5685 17.8037L26.5677 17.8047ZM16.0038 17.8476V20.4023H16.5174V19.4394H16.8534C17.086 19.4394 17.2639 19.4281 17.3866 19.4043C17.4768 19.3844 17.5654 19.3436 17.6522 19.2832C17.7401 19.2219 17.8123 19.1363 17.869 19.0293C17.9257 18.9222 17.953 18.7915 17.953 18.6347C17.953 18.4314 17.9049 18.2666 17.8065 18.1387C17.7081 18.0097 17.5851 17.9245 17.4393 17.8867C17.3444 17.8628 17.1404 17.8476 16.828 17.8476H16.0038ZM23.5721 17.8476V20.4023H24.0858V19.4394H24.4197C24.6523 19.4394 24.8303 19.4281 24.9529 19.4043C25.0432 19.3844 25.1317 19.3436 25.2185 19.2832C25.3065 19.2219 25.3786 19.1363 25.4353 19.0293C25.492 18.9222 25.5213 18.7915 25.5213 18.6347C25.5213 18.4314 25.4712 18.2666 25.3728 18.1387C25.2745 18.0097 25.1534 17.9245 25.0076 17.8867C24.9127 17.8628 24.7087 17.8476 24.3963 17.8476H23.5721ZM16.5175 18.2793H16.7675C16.9526 18.2793 17.0753 18.2888 17.1366 18.3007C17.2199 18.3167 17.2892 18.3536 17.3436 18.414C17.398 18.4741 17.4237 18.5494 17.4237 18.6425C17.4237 18.7181 17.4044 18.7845 17.3651 18.8418C17.3269 18.8986 17.2732 18.9417 17.205 18.9687C17.1367 18.9966 17.0012 19.0078 16.7987 19.0078H16.5175V18.2793ZM24.0858 18.2793H24.3338C24.519 18.2793 24.6416 18.2888 24.703 18.3007C24.7863 18.3167 24.8556 18.3536 24.91 18.414C24.9644 18.4741 24.992 18.5494 24.992 18.6425C24.992 18.7181 24.9708 18.7845 24.9315 18.8418C24.8933 18.8986 24.8415 18.9417 24.7733 18.9687C24.705 18.9966 24.5695 19.0078 24.367 19.0078H24.0858V18.2793ZM18.1386 18.5527L18.8827 20.4023H19.3221L20.0545 18.5527H19.5526L19.201 19.496C19.1825 19.5482 19.1665 19.6013 19.1503 19.6542C19.1433 19.6781 19.1261 19.7325 19.0995 19.8124L18.9979 19.496L18.6522 18.5527H18.1386ZM8.24288 21.6407C5.89251 21.6407 4.00073 23.5316 4.00073 25.8826V25.9529C4.00073 28.3033 5.89251 30.197 8.24288 30.197H39.7585C42.1085 30.197 44.0004 28.304 44.0004 25.953V25.883C44.0004 23.532 42.1085 21.6411 39.7585 21.6411L8.24288 21.6407ZM8.73897 22.1557H39.2346C41.585 22.1557 43.4767 23.8344 43.4767 25.9193C43.4767 28.0042 41.585 29.683 39.2346 29.683H8.73897C6.3886 29.683 4.49683 28.0042 4.49683 25.9193C4.49683 23.8344 6.3886 22.1557 8.73897 22.1557ZM39.7816 23.2376C39.074 23.2376 38.3954 23.5187 37.895 24.0191C37.3947 24.5194 37.1136 25.198 37.1136 25.9056C37.1136 26.6132 37.3947 27.2918 37.895 27.7921C38.3954 28.2925 39.074 28.5736 39.7816 28.5736C40.4892 28.5736 41.1678 28.2925 41.6681 27.7921C42.1685 27.2918 42.4496 26.6132 42.4496 25.9056C42.4496 25.198 42.1685 24.5194 41.6681 24.0191C41.1678 23.5187 40.4892 23.2376 39.7816 23.2376ZM8.55198 23.5156C7.27089 23.5156 6.2395 24.5469 6.2395 25.8261C6.2395 27.1054 7.27089 28.1347 8.55198 28.1347H28.5707C29.8518 28.1347 30.8832 27.1054 30.8832 25.8261C30.8832 24.5468 29.8518 23.5156 28.5707 23.5156H8.55198ZM39.7816 23.7536C40.0643 23.7535 40.3442 23.8091 40.6054 23.9172C40.8666 24.0253 41.1039 24.1838 41.3038 24.3837C41.5037 24.5835 41.6624 24.8208 41.7706 25.0819C41.8788 25.343 41.9345 25.6229 41.9346 25.9056C41.9346 26.1884 41.879 26.4684 41.7709 26.7296C41.6627 26.9909 41.5041 27.2283 41.3042 27.4282C41.1042 27.6281 40.8668 27.7867 40.6056 27.8949C40.3443 28.003 40.0643 28.0587 39.7816 28.0586C39.4989 28.0585 39.219 28.0028 38.9579 27.8946C38.6967 27.7864 38.4595 27.6278 38.2596 27.4278C38.0598 27.2279 37.9013 26.9906 37.7932 26.7294C37.6851 26.4682 37.6295 26.1883 37.6296 25.9056C37.6297 25.3349 37.8564 24.7876 38.26 24.384C38.6636 23.9805 39.2109 23.7537 39.7816 23.7536ZM8.54798 24.0246H10.3722V27.6166H8.54808C7.55339 27.6166 6.7512 26.8144 6.7512 25.8197C6.7512 24.825 7.55337 24.0248 8.54808 24.0248L8.54798 24.0246ZM10.8858 24.0246H28.5626C29.5573 24.0246 30.3595 24.8248 30.3595 25.8195C30.3595 26.8142 29.5573 27.6164 28.5626 27.6164H10.8858V24.0246ZM34.0626 24.0346C33.8159 24.0347 33.5716 24.0833 33.3437 24.1778C33.1158 24.2722 32.9087 24.4106 32.7344 24.5851C32.56 24.7596 32.4217 24.9667 32.3273 25.1947C32.233 25.4226 32.1845 25.6669 32.1846 25.9136C32.1845 26.1603 32.233 26.4046 32.3273 26.6325C32.4217 26.8605 32.56 27.0676 32.7344 27.2421C32.9087 27.4166 33.1158 27.555 33.3437 27.6495C33.5716 27.7439 33.8159 27.7925 34.0626 27.7926C34.3093 27.7927 34.5537 27.7441 34.7817 27.6497C35.0097 27.5553 35.2169 27.4169 35.3914 27.2424C35.5659 27.0679 35.7043 26.8608 35.7987 26.6328C35.8931 26.4048 35.9416 26.1604 35.9415 25.9136C35.9416 25.6668 35.8931 25.4225 35.7987 25.1944C35.7043 24.9664 35.5659 24.7593 35.3914 24.5848C35.2169 24.4103 35.0097 24.2719 34.7817 24.1775C34.5537 24.0831 34.3093 24.0345 34.0626 24.0346ZM34.0626 24.5424C34.2427 24.5422 34.4212 24.5774 34.5877 24.6462C34.7542 24.715 34.9055 24.816 35.0329 24.9433C35.1604 25.0707 35.2614 25.2219 35.3303 25.3884C35.3993 25.5548 35.4347 25.7333 35.4345 25.9134C35.4344 26.0934 35.3988 26.2716 35.3298 26.4378C35.2607 26.6041 35.1596 26.7551 35.0322 26.8822C34.9048 27.0093 34.7536 27.1101 34.5872 27.1788C34.4208 27.2475 34.2425 27.2827 34.0626 27.2824C33.6996 27.2821 33.3515 27.1378 33.0948 26.8811C32.8382 26.6245 32.6938 26.2764 32.6936 25.9134C32.6934 25.7335 32.7287 25.5553 32.7975 25.3891C32.8662 25.2228 32.967 25.0717 33.0941 24.9444C33.2212 24.8171 33.3722 24.7161 33.5384 24.6471C33.7045 24.5781 33.8826 24.5426 34.0626 24.5424Z" fill="#333333"/>
</svg>
